icons/bugsnag.svg

<?xml version="1.0" encoding="UTF-8"?>
<svg width="256px" height="369px" viewBox="0 0 256 369" version="1.1" xmlns="http://www.w3.org/2000/svg" xmlns:xlink="http://www.w3.org/1999/xlink" preserveAspectRatio="xMidYMid">
    <g>
        <path d="M65.0423885,2.17395258 C70.4545453,5.19866092 73.8066154,10.9148738 73.8039753,17.1148976 L73.9684716,167.519284 L128,167.519284 C157.528128,167.514849 184.151192,185.29875 195.45419,212.57791 C206.757189,239.857069 200.514033,271.258943 179.636062,292.140051 C158.758091,313.021159 127.357155,319.269032 100.076298,307.970132 C72.7954405,296.671231 55.0075397,270.050839 55.0075394,240.522711 L54.9417409,186.567948 L19.0376971,186.567948 L19.0376971,240.522711 C19.0376971,300.700929 67.8217818,349.485014 128,349.485014 C188.178218,349.485014 236.962303,300.700929 236.962303,240.522711 C236.962303,180.344493 188.178218,131.560408 128,131.560408 L111.484578,131.560408 C106.227464,131.560408 101.96573,127.298675 101.96573,122.04156 C101.96573,116.784445 106.227464,112.522711 111.484578,112.522711 L128,112.522711 C198.692448,112.522711 256,169.830263 256,240.522711 C256,311.215159 198.692448,368.522711 128,368.522711 C57.3401216,368.444143 0.0785681282,311.18259 0,240.522711 L0,177.049099 C0,171.790207 4.25996023,167.525336 9.51884853,167.519284 L54.9198081,167.519284 L54.7662783,20.5693185 L19.0376971,42.5569813 L19.0376971,126.23073 C19.0376971,131.487845 14.7759634,135.749579 9.51884853,135.749579 C4.26173365,135.749579 0,131.487845 0,126.23073 L0,41.4713061 C0.0146388647,35.5314746 3.0957178,30.0203657 8.14804661,26.8969401 L47.7258396,2.54053164 C53.0051433,-0.710507348 59.6302316,-0.85075577 65.0423885,2.17395258 Z M127.945168,186.567948 L73.9904033,186.567948 L73.9904033,240.511745 C73.9859687,262.335407 87.1288121,282.012637 107.289974,290.367265 C127.451136,298.721892 150.65984,294.108459 166.093068,278.678368 C181.526296,263.248276 186.144447,240.040511 177.793918,219.877651 C169.443389,199.714791 149.768831,186.567948 127.945168,186.567948 Z M128,225.257461 C136.430765,225.257461 143.26525,232.091946 143.26525,240.522711 C143.26525,248.953476 136.430765,255.787961 128,255.787961 C119.569235,255.787961 112.73475,248.953476 112.73475,240.522711 C112.73475,232.091946 119.569235,225.257461 128,225.257461 Z" fill="#000D47"></path>
    </g>
</svg>

<svg xmlns="http://www.w3.org/2000/svg" viewBox="0 0 256 368.523">
  <path fill="#000d47" d="M65.042 2.174a17.108 17.108 0 0 1 8.762 14.94l.164 150.405H128c29.528-.004 56.151 17.78 67.454 45.059 11.303 27.28 5.06 58.68-15.818 79.562-20.878 20.881-52.279 27.129-79.56 15.83-27.28-11.299-45.068-37.92-45.068-67.447l-.066-53.955H19.038v53.955c0 60.178 48.784 108.962 108.962 108.962 60.178 0 108.962-48.784 108.962-108.962 0-60.179-48.784-108.963-108.962-108.963h-16.515a9.519 9.519 0 1 1 0-19.037H128c70.692 0 128 57.307 128 128 0 70.692-57.308 128-128 128-70.66-.079-127.921-57.34-128-128v-63.474a9.53 9.53 0 0 1 9.519-9.53h45.4l-.153-146.95-35.728 21.988v83.674a9.519 9.519 0 0 1-19.038 0V41.47a17.184 17.184 0 0 1 8.148-14.574L47.726 2.54a17.108 17.108 0 0 1 17.316-.367zm62.903 184.394H73.99v53.944a53.955 53.955 0 1 0 53.955-53.944zm.055 38.69c8.43 0 15.265 6.834 15.265 15.265 0 8.43-6.834 15.265-15.265 15.265-8.43 0-15.265-6.835-15.265-15.265 0-8.431 6.834-15.266 15.265-15.266z"/>
</svg>
